packages/tokens/icons/bell/size32Px.svg

<svg viewBox="0 0 32 32" fill="none" xmlns="http://www.w3.org/2000/svg" width="1em" height="1em"><path d="M28.4999 22.7708C28.4901 24.2628 27.2276 25.5 25.6477 25.5H6.35225C4.77245 25.5 3.50991 24.2628 3.50006 22.7708C3.49404 21.859 3.95389 21.0477 4.67482 20.5512C4.85476 20.4273 5.04327 20.3307 5.2593 20.2199C5.27941 20.2096 5.29976 20.1992 5.32037 20.1886C5.54985 20.0707 5.81579 19.931 6.05461 19.7364C6.30286 19.5341 6.52149 19.2738 6.67262 18.9149C6.82115 18.5621 6.89383 18.1394 6.891 17.624C6.86889 13.5998 7.65877 10.5696 9.17843 8.55582C10.6799 6.56612 12.9464 5.5 16.0564 5.5C19.1657 5.5 21.4022 6.56544 22.8754 8.55243C24.3682 10.5657 25.1311 13.5965 25.109 17.624C25.1062 18.1394 25.1788 18.5621 25.3274 18.9149C25.4785 19.2738 25.6971 19.5341 25.9454 19.7364C26.1842 19.931 26.4501 20.0707 26.6796 20.1886C26.7002 20.1992 26.7206 20.2096 26.7407 20.2199C26.9567 20.3306 27.1452 20.4273 27.3252 20.5512C28.0461 21.0477 28.506 21.859 28.4999 22.7708Z" stroke="currentColor"/><path d="M19.355 27C18.9247 28.4457 17.5855 29.5 16 29.5C14.4144 29.5 13.0752 28.4457 12.6449 27" stroke="currentColor" stroke-linecap="round" stroke-linejoin="round"/><path d="M17.937 4C17.8573 3.69031 17.7053 3.40965 17.5 3.17709C17.1335 2.76188 16.5974 2.5 16 2.5C15.4027 2.5 14.8665 2.76188 14.5 3.17709C14.2948 3.40965 14.1427 3.69031 14.063 4" stroke="currentColor" stroke-linecap="round" stroke-linejoin="round"/></svg>

<svg xmlns="http://www.w3.org/2000/svg" fill="none" viewBox="0 0 32 32" width="1em" height="1em"><path stroke="currentColor" d="M28.5 22.77c-.01 1.493-1.272 2.73-2.852 2.73H6.352c-1.58 0-2.842-1.237-2.852-2.73a2.669 2.669 0 0 1 1.175-2.219c.18-.124.368-.22.584-.331l.061-.031a4.09 4.09 0 0 0 .735-.453c.248-.202.466-.462.618-.821.148-.353.22-.776.218-1.291-.022-4.024.768-7.054 2.287-9.068C10.68 6.566 12.946 5.5 16.056 5.5c3.11 0 5.346 1.065 6.82 3.052 1.492 2.014 2.255 5.045 2.233 9.072-.003.515.07.938.218 1.29.151.36.37.62.618.822.24.195.505.335.735.453l.06.03c.217.112.405.208.585.332a2.669 2.669 0 0 1 1.175 2.22Z"/><path stroke="currentColor" stroke-linecap="round" stroke-linejoin="round" d="M19.355 27a3.502 3.502 0 0 1-6.71 0m5.292-23A1.995 1.995 0 0 0 16 2.5 1.995 1.995 0 0 0 14.063 4"/></svg>
